assets/img/titlebar/linker.svg

<svg width="15px" height="15px" viewBox="2 1 13 13" version="1.1" xmlns="http://www.w3.org/2000/svg">
    <title>Linker</title>
    <defs>
        <path d="M17.9246212,15.4246212 L16.9246212,15.4246212 L16.9246212,12.9246212 C16.9246212,11.5439093 15.8053331,10.4246212 14.4246212,10.4246212 C13.0439093,10.4246212 11.9246212,11.5439093 11.9246212,12.9246212 L11.9246212,15.4246212 L10.9246212,15.4246212 L10.9246212,12.9246212 C10.9246212,10.9916246 12.4916246,9.4246212 14.4246212,9.4246212 C16.3576178,9.4246212 17.9246212,10.9916246 17.9246212,12.9246212 L17.9246212,15.4246212 Z M17.9246212,17.4246212 L17.9246212,19.9246212 C17.9246212,21.8576178 16.3576178,23.4246212 14.4246212,23.4246212 C12.4916246,23.4246212 10.9246212,21.8576178 10.9246212,19.9246212 L10.9246212,17.4246212 L11.9246212,17.4246212 L11.9246212,19.9246212 C11.9246212,21.3053331 13.0439093,22.4246212 14.4246212,22.4246212 C15.8053331,22.4246212 16.9246212,21.3053331 16.9246212,19.9246212 L16.9246212,17.4246212 L17.9246212,17.4246212 Z M14.4246212,13.4246212 C14.7007636,13.4246212 14.9246212,13.6484788 14.9246212,13.9246212 L14.9246212,18.9246212 C14.9246212,19.2007636 14.7007636,19.4246212 14.4246212,19.4246212 C14.1484788,19.4246212 13.9246212,19.2007636 13.9246212,18.9246212 L13.9246212,13.9246212 C13.9246212,13.6484788 14.1484788,13.4246212 14.4246212,13.4246212 Z" id="path-1"></path>
        <filter x="-28.6%" y="-7.1%" width="157.1%" height="128.6%" filterUnits="objectBoundingBox" id="filter-2">
            <feOffset dx="0" dy="1" in="SourceAlpha" result="shadowOffsetOuter1"></feOffset>
            <feGaussianBlur stdDeviation="0.5" in="shadowOffsetOuter1" result="shadowBlurOuter1"></feGaussianBlur>
            <feColorMatrix values="0 0 0 0 0   0 0 0 0 0   0 0 0 0 0  0 0 0 0.5 0" type="matrix" in="shadowBlurOuter1"></feColorMatrix>
        </filter>
    </defs>
    <g id="Symbols" stroke="none" strokeWidth="1" fill="none" fillRule="evenodd">
        <g id="atoms/icons/link" transform="translate(-6.000000, -9.000000)" fillRule="nonzero">
            <g id="Linker" transform="translate(14.424621, 16.424621) rotate(45.000000) translate(-14.424621, -16.424621) ">
                <use fill="black" fillOpacity="1" filter="url(#filter-2)" xlinkHref="#path-1"></use>
                <use fill="#FFFFFF" xlinkHref="#path-1"></use>
            </g>
        </g>
    </g>
</svg>

<svg width="15px" height="15px" viewBox="2 1 13 13" 
    xmlns="http://www.w3.org/2000/svg" 
    xmlns:xlink="http://www.w3.org/1999/xlink">
    <title>Linker</title>
    <defs>
        <path id="prefix__b" d="M17.925 15.425h-1v-2.5a2.5 2.5 0 0 0-5 0v2.5h-1v-2.5a3.5 3.5 0 1 1 7 0v2.5zm0 2v2.5a3.5 3.5 0 1 1-7 0v-2.5h1v2.5a2.5 2.5 0 0 0 5 0v-2.5h1zm-3.5-4a.5.5 0 0 1 .5.5v5a.5.5 0 0 1-1 0v-5a.5.5 0 0 1 .5-.5z"/>
        <filter id="prefix__a" x="-28.6%" y="-7.1%" width="157.1%" height="128.6%">
            <feOffset dy="1" in="SourceAlpha" result="shadowOffsetOuter1"/>
            <feGaussianBlur in="shadowOffsetOuter1" result="shadowBlurOuter1" stdDeviation=".5"/>
            <feColorMatrix in="shadowBlurOuter1" values="0 0 0 0 0 0 0 0 0 0 0 0 0 0 0 0 0 0 0.5 0"/>
        </filter>
    </defs>
    <g transform="rotate(45 22.289 4.682)" fillRule="nonzero" fill="none">
        <use fill="#000" filter="url(#prefix__a)" xlink:href="#prefix__b"/>
        <use fill="#FFF" xlink:href="#prefix__b"/>
    </g>
</svg>
